X:1
T:Sweet William, My Son
M:3/4
L:1/4
K:G
 D| D B B| B- A G| D F A| A2 D| D B B| B- A G| D F A| A2G/2-B/2| d Bd/2-c/2|\
 B B B/2A/2| G D G| A2 G/2B/2| d B d/2c/2| B G B| A A A| G2||
